website/static/img/icons/white/guides.svg

<svg fill="none" height="27" viewBox="0 0 28 27" width="28" xmlns="http://www.w3.org/2000/svg"><path clip-rule="evenodd" d="m.523438 4.05c0-2.23675 1.813242-4.05 4.050002-4.05h13.49996c2.2368 0 4.05 1.81325 4.05 4.05v1.35h1.35c2.2368 0 4.05 1.81325 4.05 4.05v13.5c0 2.2368-1.8132 4.05-4.05 4.05h-13.49996c-2.23676 0-4.05-1.8132-4.05-4.05v-1.35h-1.35c-2.23676 0-4.050002-1.8132-4.050002-4.05zm5.400002 14.85v-9.45c0-2.23675 1.81324-4.05 4.05-4.05h9.44996v-1.35c0-.74558-.6044-1.35-1.35-1.35h-13.49996c-.74559 0-1.35.60442-1.35 1.35v13.5c0 .7456.60441 1.35 1.35 1.35zm4.05-10.8c-.74559 0-1.35.60442-1.35 1.35v13.5c0 .7456.60441 1.35 1.35 1.35h13.49996c.7456 0 1.35-.6044 1.35-1.35v-13.5c0-.74558-.6044-1.35-1.35-1.35z" fill="#fff" fill-rule="evenodd"/></svg>

<svg width="28" height="27" viewBox="0 0 28 27" fill="none" xmlns="http://www.w3.org/2000/svg">
<path fill-rule="evenodd" clip-rule="evenodd" d="M0.523438 4.05C0.523438 1.81325 2.33668 0 4.57344 0H18.0734C20.3102 0 22.1234 1.81325 22.1234 4.05V5.4H23.4734C25.7102 5.4 27.5234 7.21325 27.5234 9.45V22.95C27.5234 25.1868 25.7102 27 23.4734 27H9.97344C7.73668 27 5.92344 25.1868 5.92344 22.95V21.6H4.57344C2.33668 21.6 0.523438 19.7868 0.523438 17.55V4.05ZM5.92344 18.9V9.45C5.92344 7.21325 7.73668 5.4 9.97344 5.4H19.4234V4.05C19.4234 3.30442 18.819 2.7 18.0734 2.7H4.57344C3.82785 2.7 3.22344 3.30442 3.22344 4.05V17.55C3.22344 18.2956 3.82785 18.9 4.57344 18.9H5.92344ZM9.97344 8.1C9.22785 8.1 8.62344 8.70442 8.62344 9.45V22.95C8.62344 23.6956 9.22785 24.3 9.97344 24.3H23.4734C24.219 24.3 24.8234 23.6956 24.8234 22.95V9.45C24.8234 8.70442 24.219 8.1 23.4734 8.1H9.97344Z" fill="white"/>
</svg>
